X:225
T: Toss the Feathers (D Version)
M: 4/4
L: 1/8
R: Reel
K: D
D2 FD ADFD|FAAG EFGE|D2 FD ADFD|d2 ed cAGE|
D2 FD ADFD|FAAG EFGE|=cABG A3B|d2 ed cAGE :|
Ad d/c/d Ad d/c/d|Ad d/c/d edcd|eaag a3g|eaag ed (3Bcd|
efge a2ge|f3e dcAB|=cABG A3B|d2 ed cAGE :|
